public/images/contacts/fb-logo-contacts.svg

<svg width="22" height="22" viewBox="0 0 22 22" fill="none" xmlns="http://www.w3.org/2000/svg">
<path d="M22 3.66691C22 1.7402 20.2605 0 18.3333 0H3.66667C1.73947 0 0 1.7402 0 3.66691V18.3331C0 20.2598 1.73947 22 3.66691 22H11V13.6889H8.31111V10.0222H11V8.59369C11 6.12993 12.85 3.91111 15.125 3.91111H18.0889V7.57778H15.125C14.8006 7.57778 14.4222 7.97158 14.4222 8.56142V10.0222H18.0889V13.6889H14.4222V22H18.3333C20.2605 22 22 20.2598 22 18.3331V3.66691Z" fill="#43484C"/>
</svg>

<svg xmlns="http://www.w3.org/2000/svg" width="22" height="22" fill="none" xmlns:v="https://vecta.io/nano"><path d="M22 3.667C22 1.74 20.261 0 18.333 0H3.667C1.739 0 0 1.74 0 3.667v14.666C0 20.26 1.739 22 3.667 22H11v-8.311H8.311v-3.667H11V8.594c0-2.464 1.85-4.683 4.125-4.683h2.964v3.667h-2.964c-.324 0-.703.394-.703.984v1.461h3.667v3.667h-3.667V22h3.911C20.261 22 22 20.26 22 18.333V3.667z" fill="#43484c"/></svg>
